iMoney3.0/img/home/why-free.svg

<svg width="100" height="137" viewBox="0 0 100 137" xmlns="http://www.w3.org/2000/svg"><title>why-free</title><desc>Created with Sketch.</desc><g fill="none"><path d="M68.18 40.424l6.512-11.655L62.27 17H37.422L25 28.77l6.568 11.753C13.078 47.863 0 65.898 0 87c0 27.614 22.386 50 50 50s50-22.386 50-50c0-21.198-13.198-39.302-31.82-46.576zm-38.17-10.89L39.016 21h21.82l8.927 8.534L59.922 47H39.77l-9.76-17.466zM50 51c19.85 0 36 16.15 36 36s-16.15 36-36 36-36-16.15-36-36 16.15-36 36-36zm0 82c-25.364 0-46-20.636-46-46 0-19.566 12.285-36.308 29.542-42.945l2.955 5.287C21.05 54.882 10 69.648 10 87c0 22.09 17.91 40 40 40s40-17.91 40-40c0-17.448-11.175-32.278-26.756-37.745l2.962-5.3C83.596 50.526 96 67.34 96 87c0 25.364-20.635 46-46 46z" fill="#2C96B9"/><path d="M28 28h44v4H28v-4z" fill="#2C96B9"/><path d="M48 0h4v10h-4V0z" fill="#2C96B9"/><path d="M37.232 12.885l-3.464 2-3.45-5.977 3.463-2 3.452 5.977" fill="#2C96B9"/><path d="M25.885 22.768l-2 3.464-8.66-5 2-3.464 8.66 5" fill="#2C96B9"/><path d="M76.115 26.232l-2-3.464 8.66-5 2 3.464-8.66 5" fill="#2C96B9"/><path d="M66.232 14.885l-3.464-2 3.634-6.294 3.464 2-3.634 6.295" fill="#2C96B9"/><path d="M26 83h8v4h-8v-4z" fill="#183D5A"/><path d="M26 83h4v12h-4V83z" fill="#183D5A"/><path d="M36 83h4v12h-4V83z" fill="#183D5A"/><path d="M40 83h8v4h-8v-4z" fill="#183D5A"/><path d="M42 83h4v12h-4V83z" fill="#183D5A"/><path d="M48 83h4v12h-4V83z" fill="#183D5A"/><path d="M56 73h4v22h-4V73z" fill="#183D5A"/><path d="M60 73h8v4h-8v-4z" fill="#183D5A"/><path d="M60 91h8v4h-8v-4z" fill="#183D5A"/><path d="M68 73h4v22h-4V73z" fill="#183D5A"/></g></svg>

<?xml version="1.0" encoding="UTF-8" standalone="no"?>
<svg width="100px" height="137px" viewBox="0 0 100 137" version="1.1" xmlns="http://www.w3.org/2000/svg" xmlns:xlink="http://www.w3.org/1999/xlink" xmlns:sketch="http://www.bohemiancoding.com/sketch/ns">
    <!-- Generator: Sketch 3.2.2 (9983) - http://www.bohemiancoding.com/sketch -->
    <title>why-free</title>
    <desc>Created with Sketch.</desc>
    <defs></defs>
    <g id="Page-1" stroke="none" stroke-width="1" fill="none" fill-rule="evenodd" sketch:type="MSPage">
        <g id="Homepage" sketch:type="MSArtboardGroup" transform="translate(-518.000000, -1673.000000)">
            <g id="why-free" sketch:type="MSLayerGroup" transform="translate(518.000000, 1673.000000)">
                <path d="M68.18,40.424 L74.692,28.769 L62.269,17 L37.423,17 L25,28.769 L31.568,40.523 C13.079,47.862 0,65.898 0,87 C0,114.614 22.386,137 50,137 C77.614,137 100,114.614 100,87 C100,65.802 86.802,47.698 68.18,40.424 L68.18,40.424 Z M30.009,29.534 L39.017,21 L60.838,21 L69.764,29.534 L59.922,47 L39.77,47 L30.009,29.534 L30.009,29.534 Z M50,51 C69.85,51 86,67.15 86,87 C86,106.851 69.85,123 50,123 C30.149,123 14,106.851 14,87 C14,67.15 30.149,51 50,51 L50,51 Z M50,133 C24.636,133 4,112.364 4,87 C4,67.434 16.285,50.692 33.542,44.055 L36.497,49.342 C21.051,54.882 10,69.648 10,87 C10,109.091 27.909,127 50,127 C72.091,127 90,109.091 90,87 C90,69.552 78.825,54.722 63.244,49.255 L66.206,43.956 C83.596,50.525 96,67.338 96,87 C96,112.364 75.365,133 50,133 L50,133 Z" id="Fill-1" fill="#2C96B9" sketch:type="MSShapeGroup"></path>
                <path d="M28,28 L72,28 L72,32 L28,32 L28,28 Z" id="Fill-2" fill="#2C96B9" sketch:type="MSShapeGroup"></path>
                <path d="M48,0 L52,0 L52,10 L48,10 L48,0 Z" id="Fill-3" fill="#2C96B9" sketch:type="MSShapeGroup"></path>
                <path d="M37.232,12.885 L33.768,14.885 L30.317,8.908 L33.781,6.908 L37.232,12.885" id="Fill-4" fill="#2C96B9" sketch:type="MSShapeGroup"></path>
                <path d="M25.885,22.768 L23.885,26.232 L15.225,21.232 L17.225,17.768 L25.885,22.768" id="Fill-5" fill="#2C96B9" sketch:type="MSShapeGroup"></path>
                <path d="M76.115,26.232 L74.115,22.768 L82.775,17.768 L84.775,21.232 L76.115,26.232" id="Fill-6" fill="#2C96B9" sketch:type="MSShapeGroup"></path>
                <path d="M66.232,14.885 L62.768,12.885 L66.402,6.591 L69.866,8.591 L66.232,14.885" id="Fill-7" fill="#2C96B9" sketch:type="MSShapeGroup"></path>
                <path d="M26,83 L34,83 L34,87 L26,87 L26,83 Z" id="Fill-8" fill="#183D5A" sketch:type="MSShapeGroup"></path>
                <path d="M26,83 L30,83 L30,95 L26,95 L26,83 Z" id="Fill-9" fill="#183D5A" sketch:type="MSShapeGroup"></path>
                <path d="M36,83 L40,83 L40,95 L36,95 L36,83 Z" id="Fill-10" fill="#183D5A" sketch:type="MSShapeGroup"></path>
                <path d="M40,83 L48,83 L48,87 L40,87 L40,83 Z" id="Fill-11" fill="#183D5A" sketch:type="MSShapeGroup"></path>
                <path d="M42,83 L46,83 L46,95 L42,95 L42,83 Z" id="Fill-12" fill="#183D5A" sketch:type="MSShapeGroup"></path>
                <path d="M48,83 L52,83 L52,95 L48,95 L48,83 Z" id="Fill-13" fill="#183D5A" sketch:type="MSShapeGroup"></path>
                <path d="M56,73 L60,73 L60,95 L56,95 L56,73 Z" id="Fill-14" fill="#183D5A" sketch:type="MSShapeGroup"></path>
                <path d="M60,73 L68,73 L68,77 L60,77 L60,73 Z" id="Fill-15" fill="#183D5A" sketch:type="MSShapeGroup"></path>
                <path d="M60,91 L68,91 L68,95 L60,95 L60,91 Z" id="Fill-16" fill="#183D5A" sketch:type="MSShapeGroup"></path>
                <path d="M68,73 L72,73 L72,95 L68,95 L68,73 Z" id="Fill-17" fill="#183D5A" sketch:type="MSShapeGroup"></path>
            </g>
        </g>
    </g>
</svg>
